X:1
T:Dying Stephen, 77.87 D
T:John Frederick Lampe, 1746
T:Dying Stephen, 77.87 D
T:Public Domain
C:John Frederick Lampe, 1746
Z:Public Domain
%%score ( 1 2 ) ( 3 4 )
L:1/8
M:4/4
K:F
V:1 treble 
V:2 treble 
V:3 bass 
V:4 bass 
V:1
 [CF]2 [FA]>[EB] [Fc]2 [GB]2 | [FA]2 [EG]4 F2 | F2 z d [Fc]2 [Dd]2 | [Fc]2 [EB]2 [FA]2 (AB) | %4
 [Cc]2 ([GB][FA]) [EG]2 (FG) | (CF)GF [CE]2 [CG]2 | [CA]2 [Fd]2 [D=B]2 (AB) | (E3 F) [Ec]2 (CD) | %8
 [EG]2 AB [Cc]2 [DB]2 | [FA]2 [EG]4 [EA]2 | [DF]2 ([^CE]D) D2 z e x | [E^c][DB] [^CA]4 [EA]2 | %12
 (dc)(BA) [GB]2 G2 | (cB)(AG) [FA]2 [FB]2 | [Fc]2 (FE) (BA) [EG]2 | [CF]4 [CF]4 |] %16
V:2
 x8 | x6 F2 | d3 E2 x3 | x6 F2 | x6 C2 | A2 D2 x4 | x6 F2 | c4 G2 x2 | x2 C2 x4 | x8 | x4 d3 G2 | %11
 x8 | A2 ^F2 x G2 x | G2 E2 x4 | x2 F2 D2 x2 | x8 |] %16
V:3
 [F,A,]2 [F,C]>[G,C] [A,C]2 [B,D]2 | C2 [C,C]4 [D,A,]2 | [B,,B,]2 [G,B,]2 [A,C]2 [F,A,]2 | %3
 ([G,D]2 [C,C]2) [F,C]2 [D,F,]2 | [A,,F,]2 [B,,G,]2 [C,G,]2 ([D,C][E,B,]) | %5
 [F,A,]2 (B,A,) [C,G,]2 (CB,) | [F,A,]2 [D,A,]2 G,2 [G,,G,]2 | (G,3 A,) [C,G,]2 (E,D,) | %8
 [C,C]2 [B,,E,]2 [A,,F,]2 [B,,F,]2 | (A,B,) [=C,C]4 [^C,A,]2 | %10
 [D,A,]2 ([E,G,][F,A,]) [G,B,]2 [E,B,]2 x | A,2 [A,,A,]4 [G,^C]2 | %12
 [^F,D]2 [D,C]2 (G,A,)([G,B,][=F,A,]) | [E,G,]2 [C,B,]2 [F,A,]2 [D,F,]2 | %14
 (F,G,)(D,C,) [B,,B,]2 [C,B,]2 | (B,2 G,2) [F,A,]4 |] %16
V:4
 x8 | C2 x6 | x8 | x8 | x8 | x2 B,,2 x E,2 x | x4 G,2 x2 | C,4 G,2 x2 | x8 | ^C,4 x4 | x9 | %11
 A,2 x6 | x4 B,2 x2 | x8 | A,,2 A,2 x4 | F,4 x4 |] %16

